svg/google-docs.svg

<?xml version="1.0" encoding="UTF-8"?>
<svg width="47px" height="65px" viewBox="0 0 47 65" version="1.1" xmlns="http://www.w3.org/2000/svg" xmlns:xlink="http://www.w3.org/1999/xlink">
    <!-- Generator: Sketch 54.1 (76490) - https://sketchapp.com -->
    <title>Docs-icon</title>
    <desc>Created with Sketch.</desc>
    <defs>
        <path d="M29.375,0 L4.40625,0 C1.9828125,0 0,1.99431818 0,4.43181818 L0,60.5681818 C0,63.0056818 1.9828125,65 4.40625,65 L42.59375,65 C45.0171875,65 47,63.0056818 47,60.5681818 L47,17.7272727 L29.375,0 Z" id="path-1"></path>
        <path d="M29.375,0 L4.40625,0 C1.9828125,0 0,1.99431818 0,4.43181818 L0,60.5681818 C0,63.0056818 1.9828125,65 4.40625,65 L42.59375,65 C45.0171875,65 47,63.0056818 47,60.5681818 L47,17.7272727 L29.375,0 Z" id="path-3"></path>
        <linearGradient x1="50.0053945%" y1="8.58610612%" x2="50.0053945%" y2="100.013939%" id="linearGradient-5">
            <stop stop-color="#1A237E" stop-opacity="0.2" offset="0%"></stop>
            <stop stop-color="#1A237E" stop-opacity="0.02" offset="100%"></stop>
        </linearGradient>
        <path d="M29.375,0 L4.40625,0 C1.9828125,0 0,1.99431818 0,4.43181818 L0,60.5681818 C0,63.0056818 1.9828125,65 4.40625,65 L42.59375,65 C45.0171875,65 47,63.0056818 47,60.5681818 L47,17.7272727 L29.375,0 Z" id="path-6"></path>
        <path d="M29.375,0 L4.40625,0 C1.9828125,0 0,1.99431818 0,4.43181818 L0,60.5681818 C0,63.0056818 1.9828125,65 4.40625,65 L42.59375,65 C45.0171875,65 47,63.0056818 47,60.5681818 L47,17.7272727 L29.375,0 Z" id="path-8"></path>
        <path d="M29.375,0 L4.40625,0 C1.9828125,0 0,1.99431818 0,4.43181818 L0,60.5681818 C0,63.0056818 1.9828125,65 4.40625,65 L42.59375,65 C45.0171875,65 47,63.0056818 47,60.5681818 L47,17.7272727 L29.375,0 Z" id="path-10"></path>
        <path d="M29.375,0 L4.40625,0 C1.9828125,0 0,1.99431818 0,4.43181818 L0,60.5681818 C0,63.0056818 1.9828125,65 4.40625,65 L42.59375,65 C45.0171875,65 47,63.0056818 47,60.5681818 L47,17.7272727 L29.375,0 Z" id="path-12"></path>
        <path d="M29.375,0 L4.40625,0 C1.9828125,0 0,1.99431818 0,4.43181818 L0,60.5681818 C0,63.0056818 1.9828125,65 4.40625,65 L42.59375,65 C45.0171875,65 47,63.0056818 47,60.5681818 L47,17.7272727 L29.375,0 Z" id="path-14"></path>
        <radialGradient cx="3.16804688%" cy="2.71744318%" fx="3.16804688%" fy="2.71744318%" r="161.248516%" gradientTransform="translate(0.031680,0.027174),scale(1.000000,0.723077),translate(-0.031680,-0.027174)" id="radialGradient-16">
            <stop stop-color="#FFFFFF" stop-opacity="0.1" offset="0%"></stop>
            <stop stop-color="#FFFFFF" stop-opacity="0" offset="100%"></stop>
        </radialGradient>
    </defs>
    <g id="Page-1" stroke="none" stroke-width="1" fill="none" fill-rule="evenodd">
        <g id="Consumer-Apps-Docs-Large-VD-R8" transform="translate(-451.000000, -463.000000)">
            <g id="Hero" transform="translate(0.000000, 63.000000)">
                <g id="Personal" transform="translate(277.000000, 309.000000)">
                    <g id="Docs-icon" transform="translate(174.000000, 91.000000)">
                        <g id="Group">
                            <g id="Clipped">
                                <mask id="mask-2" fill="white">
                                    <use xlink:href="#path-1"></use>
                                </mask>
                                <g id="SVGID_1_"></g>
                                <path d="M29.375,0 L4.40625,0 C1.9828125,0 0,1.99431818 0,4.43181818 L0,60.5681818 C0,63.0056818 1.9828125,65 4.40625,65 L42.59375,65 C45.0171875,65 47,63.0056818 47,60.5681818 L47,17.7272727 L36.71875,10.3409091 L29.375,0 Z" id="Path" fill="#4285F4" fill-rule="nonzero" mask="url(#mask-2)"></path>
                            </g>
                            <g id="Clipped">
                                <mask id="mask-4" fill="white">
                                    <use xlink:href="#path-3"></use>
                                </mask>
                                <g id="SVGID_1_"></g>
                                <polygon id="Path" fill="url(#linearGradient-5)" fill-rule="nonzero" mask="url(#mask-4)" points="30.6638281 16.4309659 47 32.8582386 47 17.7272727"></polygon>
                            </g>
                            <g id="Clipped">
                                <mask id="mask-7" fill="white">
                                    <use xlink:href="#path-6"></use>
                                </mask>
                                <g id="SVGID_1_"></g>
                                <path d="M11.75,47.2727273 L35.25,47.2727273 L35.25,44.3181818 L11.75,44.3181818 L11.75,47.2727273 Z M11.75,53.1818182 L29.375,53.1818182 L29.375,50.2272727 L11.75,50.2272727 L11.75,53.1818182 Z M11.75,32.5 L11.75,35.4545455 L35.25,35.4545455 L35.25,32.5 L11.75,32.5 Z M11.75,41.3636364 L35.25,41.3636364 L35.25,38.4090909 L11.75,38.4090909 L11.75,41.3636364 Z" id="Shape" fill="#F1F1F1" fill-rule="nonzero" mask="url(#mask-7)"></path>
                            </g>
                            <g id="Clipped">
                                <mask id="mask-9" fill="white">
                                    <use xlink:href="#path-8"></use>
                                </mask>
                                <g id="SVGID_1_"></g>
                                <g id="Group" mask="url(#mask-9)">
                                    <g transform="translate(26.437500, -2.954545)">
                                        <path d="M2.9375,2.95454545 L2.9375,16.25 C2.9375,18.6985795 4.90929688,20.6818182 7.34375,20.6818182 L20.5625,20.6818182 L2.9375,2.95454545 Z" id="Path" fill="#A1C2FA" fill-rule="nonzero"></path>
                                    </g>
                                </g>
                            </g>
                            <g id="Clipped">
                                <mask id="mask-11" fill="white">
                                    <use xlink:href="#path-10"></use>
                                </mask>
                                <g id="SVGID_1_"></g>
                                <path d="M4.40625,0 C1.9828125,0 0,1.99431818 0,4.43181818 L0,4.80113636 C0,2.36363636 1.9828125,0.369318182 4.40625,0.369318182 L29.375,0.369318182 L29.375,0 L4.40625,0 Z" id="Path" fill-opacity="0.2" fill="#FFFFFF" fill-rule="nonzero" mask="url(#mask-11)"></path>
                            </g>
                            <g id="Clipped">
                                <mask id="mask-13" fill="white">
                                    <use xlink:href="#path-12"></use>
                                </mask>
                                <g id="SVGID_1_"></g>
                                <path d="M42.59375,64.6306818 L4.40625,64.6306818 C1.9828125,64.6306818 0,62.6363636 0,60.1988636 L0,60.5681818 C0,63.0056818 1.9828125,65 4.40625,65 L42.59375,65 C45.0171875,65 47,63.0056818 47,60.5681818 L47,60.1988636 C47,62.6363636 45.0171875,64.6306818 42.59375,64.6306818 Z" id="Path" fill-opacity="0.2" fill="#1A237E" fill-rule="nonzero" mask="url(#mask-13)"></path>
                            </g>
                            <g id="Clipped">
                                <mask id="mask-15" fill="white">
                                    <use xlink:href="#path-14"></use>
                                </mask>
                                <g id="SVGID_1_"></g>
                                <path d="M33.78125,17.7272727 C31.3467969,17.7272727 29.375,15.7440341 29.375,13.2954545 L29.375,13.6647727 C29.375,16.1133523 31.3467969,18.0965909 33.78125,18.0965909 L47,18.0965909 L47,17.7272727 L33.78125,17.7272727 Z" id="Path" fill-opacity="0.1" fill="#1A237E" fill-rule="nonzero" mask="url(#mask-15)"></path>
                            </g>
                        </g>
                        <path d="M29.375,0 L4.40625,0 C1.9828125,0 0,1.99431818 0,4.43181818 L0,60.5681818 C0,63.0056818 1.9828125,65 4.40625,65 L42.59375,65 C45.0171875,65 47,63.0056818 47,60.5681818 L47,17.7272727 L29.375,0 Z" id="Path" fill="url(#radialGradient-16)" fill-rule="nonzero"></path>
                    </g>
                </g>
            </g>
        </g>
    </g>
</svg>

<svg xmlns="http://www.w3.org/2000/svg" xmlns:xlink="http://www.w3.org/1999/xlink" width="47" height="65"><defs><path id="a" d="M29.375 0H4.406C1.983 0 0 1.994 0 4.432v56.136C0 63.006 1.983 65 4.406 65h38.188C45.017 65 47 63.006 47 60.568v-42.84L29.375 0Z"/><path id="c" d="M29.375 0H4.406C1.983 0 0 1.994 0 4.432v56.136C0 63.006 1.983 65 4.406 65h38.188C45.017 65 47 63.006 47 60.568v-42.84L29.375 0Z"/><path id="f" d="M29.375 0H4.406C1.983 0 0 1.994 0 4.432v56.136C0 63.006 1.983 65 4.406 65h38.188C45.017 65 47 63.006 47 60.568v-42.84L29.375 0Z"/><path id="h" d="M29.375 0H4.406C1.983 0 0 1.994 0 4.432v56.136C0 63.006 1.983 65 4.406 65h38.188C45.017 65 47 63.006 47 60.568v-42.84L29.375 0Z"/><path id="j" d="M29.375 0H4.406C1.983 0 0 1.994 0 4.432v56.136C0 63.006 1.983 65 4.406 65h38.188C45.017 65 47 63.006 47 60.568v-42.84L29.375 0Z"/><path id="l" d="M29.375 0H4.406C1.983 0 0 1.994 0 4.432v56.136C0 63.006 1.983 65 4.406 65h38.188C45.017 65 47 63.006 47 60.568v-42.84L29.375 0Z"/><path id="n" d="M29.375 0H4.406C1.983 0 0 1.994 0 4.432v56.136C0 63.006 1.983 65 4.406 65h38.188C45.017 65 47 63.006 47 60.568v-42.84L29.375 0Z"/><radialGradient id="p" cx="3.168%" cy="2.717%" r="161.249%" fx="3.168%" fy="2.717%" gradientTransform="matrix(1 0 0 .72308 0 .008)"><stop offset="0%" stop-color="#FFF" stop-opacity=".1"/><stop offset="100%" stop-color="#FFF" stop-opacity="0"/></radialGradient><linearGradient id="d" x1="50.005%" x2="50.005%" y1="8.586%" y2="100.014%"><stop offset="0%" stop-color="#1A237E" stop-opacity=".2"/><stop offset="100%" stop-color="#1A237E" stop-opacity=".02"/></linearGradient></defs><g fill="none" fill-rule="evenodd"><mask id="b" fill="#fff"><use xlink:href="#a"/></mask><path fill="#4285F4" fill-rule="nonzero" d="M29.375 0H4.406C1.983 0 0 1.994 0 4.432v56.136C0 63.006 1.983 65 4.406 65h38.188C45.017 65 47 63.006 47 60.568v-42.84L36.719 10.34 29.375 0Z" mask="url(#b)"/><mask id="e" fill="#fff"><use xlink:href="#c"/></mask><path fill="url(#d)" fill-rule="nonzero" d="M30.664 16.431 47 32.858v-15.13z" mask="url(#e)"/><mask id="g" fill="#fff"><use xlink:href="#f"/></mask><path fill="#F1F1F1" fill-rule="nonzero" d="M11.75 47.273h23.5v-2.955h-23.5v2.955Zm0 5.909h17.625v-2.955H11.75v2.955Zm0-20.682v2.955h23.5V32.5h-23.5Zm0 8.864h23.5v-2.955h-23.5v2.955Z" mask="url(#g)"/><mask id="i" fill="#fff"><use xlink:href="#h"/></mask><g mask="url(#i)"><path fill="#A1C2FA" fill-rule="nonzero" d="M29.375 0v13.295c0 2.449 1.972 4.432 4.406 4.432H47L29.375 0Z"/></g><mask id="k" fill="#fff"><use xlink:href="#j"/></mask><path fill="#FFF" fill-opacity=".2" fill-rule="nonzero" d="M4.406 0C1.983 0 0 1.994 0 4.432v.37C0 2.363 1.983.368 4.406.368h24.969V0H4.406Z" mask="url(#k)"/><mask id="m" fill="#fff"><use xlink:href="#l"/></mask><path fill="#1A237E" fill-opacity=".2" fill-rule="nonzero" d="M42.594 64.63H4.406C1.983 64.63 0 62.637 0 60.2v.37C0 63.005 1.983 65 4.406 65h38.188C45.017 65 47 63.006 47 60.568v-.37c0 2.438-1.983 4.433-4.406 4.433Z" mask="url(#m)"/><mask id="o" fill="#fff"><use xlink:href="#n"/></mask><path fill="#1A237E" fill-opacity=".1" fill-rule="nonzero" d="M33.781 17.727c-2.434 0-4.406-1.983-4.406-4.432v.37c0 2.448 1.972 4.432 4.406 4.432H47v-.37H33.781Z" mask="url(#o)"/><path fill="url(#p)" fill-rule="nonzero" d="M29.375 0H4.406C1.983 0 0 1.994 0 4.432v56.136C0 63.006 1.983 65 4.406 65h38.188C45.017 65 47 63.006 47 60.568v-42.84L29.375 0Z"/></g></svg>
